X:1
T:Title
%%score { ( 1 4 ) | ( 2 3 ) }
L:1/8
M:4/4
K:A
V:1 treble nm="Grand Piano"
V:4 treble 
V:2 bass 
V:3 bass 
V:1
 z4 z2[Q:1/4=100] [A,CE]2 | [CEA]2 [CEA]2 [Ec]2 [Ec]2 | [EB]2 [EA]2 F2 F2 | E2 E2 F2 G2 | %4
[M:3/4] [CA]6 |[M:1/4] cd |[M:4/4] z2 e2 z4 | z2 A2 B2 .A2 | cd[Ec][DFB] [CEA]2 [B,EG]2 | %9
[M:3/4] [CEA]6 |] %10
V:2
 z4 z2 A,,2 | A,,2 A,,2 [A,,A,]2 [B,,A,]2 | [B,,G,]2 [C,A,]2 [D,A,D]2 [D,A,D]2 | %3
 [E,G,D]2 [E,G,D]2 [E,A,D]2 [E,B,D]2 |[M:3/4] [A,,A,]6 |[M:1/4] [A,E]2 | %6
[M:4/4][K:treble] [A,CA]2 A-[CA] [B,EG]2 [A,EA]2 | [G,E]2 .[F,B,^D]2 .[E,G,E]2 [C,A,][B,,G,] | %8
 [A,,A,][B,,G,][C,A,]D, E,2 E,2 |[M:3/4] A,,6 |] %10
V:3
 x8 | x8 | x8 | x8 |[M:3/4] x6 |[M:1/4] z B, |[M:4/4][K:treble] z2 .[A,C]2 z4 | x8 | x8 | %9
[M:3/4] x6 |] %10
V:4
 x8 | x8 | x8 | x8 |[M:3/4] x6 |[M:1/4] x2 |[M:4/4] e2 z E d2 c2 | B2 z A, z D,E-[EB] | E2 z2 z4 | %9
[M:3/4] x6 |] %10

